material/.icons/material/basket-outline.svg

<svg xmlns="http://www.w3.org/2000/svg" viewBox="0 0 24 24"><path d="M22 9h-4.79l-4.38-6.56a.997.997 0 00-1.66.01L6.79 9H2c-.55 0-1 .45-1 1 0 .09 0 .18.04.27l2.54 9.27c.23.84 1 1.46 1.92 1.46h13c.92 0 1.69-.62 1.93-1.46l2.54-9.27L23 10c0-.55-.45-1-1-1M12 4.8L14.8 9H9.2L12 4.8M18.5 19h-13l-2.19-8H20.7l-2.2 8M12 13c-1.1 0-2 .9-2 2s.9 2 2 2 2-.9 2-2-.9-2-2-2z"/></svg>

<?xml version="1.0" encoding="UTF-8"?><!DOCTYPE svg PUBLIC "-//W3C//DTD SVG 1.1//EN" "http://www.w3.org/Graphics/SVG/1.1/DTD/svg11.dtd"><svg xmlns="http://www.w3.org/2000/svg" xmlns:xlink="http://www.w3.org/1999/xlink" version="1.1" id="mdi-basket-outline" width="24" height="24" viewBox="0 0 24 24"><path d="M22 9H17.21L12.83 2.44C12.64 2.16 12.32 2 12 2S11.36 2.16 11.17 2.45L6.79 9H2C1.45 9 1 9.45 1 10C1 10.09 1 10.18 1.04 10.27L3.58 19.54C3.81 20.38 4.58 21 5.5 21H18.5C19.42 21 20.19 20.38 20.43 19.54L22.97 10.27L23 10C23 9.45 22.55 9 22 9M12 4.8L14.8 9H9.2L12 4.8M18.5 19L5.5 19L3.31 11H20.7L18.5 19M12 13C10.9 13 10 13.9 10 15S10.9 17 12 17 14 16.1 14 15 13.1 13 12 13Z" /></svg>
